src/assets/images/download.svg

<svg viewBox="0 0 24 24" fill="none"
    xmlns="http://www.w3.org/2000/svg">
    <g id="SVGRepo_bgCarrier" stroke-width="0"></g>
    <g id="SVGRepo_tracerCarrier" stroke-linecap="round" stroke-linejoin="round"></g>
    <g id="SVGRepo_iconCarrier">
        <path d="M12 5H7C5.89543 5 5 5.89543 5 7V16H19V12.5" stroke="#301C41" stroke-width="2" stroke-linecap="round" stroke-linejoin="round"></path>
        <path d="M3 16H21V17C21 18.1046 20.1046 19 19 19H5C3.89543 19 3 18.1046 3 17V16Z" stroke="#301C41" stroke-width="2" stroke-linecap="round" stroke-linejoin="round"></path>
        <path d="M18.5 3V9M18.5 9L16 6.5M18.5 9L21 6.5" stroke="#301C41" stroke-width="2" stroke-linecap="round" stroke-linejoin="round"></path>
    </g>
</svg>

<svg xmlns="http://www.w3.org/2000/svg" fill="none" viewBox="0 0 24 24"><path stroke="#301C41" stroke-linecap="round" stroke-linejoin="round" stroke-width="2" d="M12 5H7a2 2 0 0 0-2 2v9h14v-3.5M3 16h18v1a2 2 0 0 1-2 2H5a2 2 0 0 1-2-2zM18.5 3v6m0 0L16 6.5M18.5 9 21 6.5"/></svg>
